ui/StatusQ/src/assets/img/icons/stickers.svg

<svg fill="none" height="24" viewBox="0 0 24 24" width="24" xmlns="http://www.w3.org/2000/svg"><g fill="#000"><path d="m9.56858 15.4864c-.33955-.2372-.81146-.2437-1.10436.0492-.29289.2929-.29546.7723.03286 1.0248.96987.7461 2.18452 1.1896 3.50272 1.1896s2.5328-.4435 3.5026-1.1896c.3284-.2525.3258-.7319.0329-1.0248s-.7648-.2864-1.1044-.0492c-.6889.4813-1.527.7636-2.4311.7636-.9042 0-1.7423-.2823-2.43122-.7636z"/><path clip-rule="evenodd" d="m21.8645 13.65c.0756-.4553.0314-.9064-.1043-1.3325-.1764-.5533-.5072-1.0645-.931-1.4883l-7.6584-7.65839c-.4238-.42379-.935-.75464-1.4883-.93097-.0533-.01698-.1069-.03252-.1609-.04657-.3781-.09839-.7732-.12393-1.1716-.05779-.061.01013-.1218.02081-.1825.03204-4.64766.86073-8.1675 4.93555-8.1675 9.83248 0 5.5228 4.47715 10 10 10 4.8969 0 8.9717-3.5198 9.8325-8.1675.0112-.0607.0219-.1215.032-.1825zm-18.3645-1.65c0-3.91363 2.64622-7.21172 6.24701-8.19858.12873-.03528.25299.06511.25299.19858 0 5.52285 4.4772 10 10 10 .1335 0 .2339.1243.1986.253-.9869 3.6008-4.285 6.247-8.1986 6.247-4.69442 0-8.5-3.8056-8.5-8.5zm16.5.5c.1011 0 .1641-.1064.1094-.1914-.0909-.1412-.204-.2819-.3409-.4188l-7.6584-7.65833c-.1368-.13687-.2775-.25-.4187-.34083-.085-.0547-.1914.00828-.1914.10936 0 4.69442 3.8056 8.5 8.5 8.5z" fill-rule="evenodd"/></g></svg>

<svg width="24" height="24" viewBox="0 0 24 24" fill="none" xmlns="http://www.w3.org/2000/svg">
<path d="M9.56858 15.4864C9.22903 15.2492 8.75712 15.2427 8.46422 15.5356C8.17133 15.8285 8.16876 16.3079 8.49708 16.5604C9.46695 17.3065 10.6816 17.75 11.9998 17.75C13.318 17.75 14.5326 17.3065 15.5024 16.5604C15.8308 16.3079 15.8282 15.8285 15.5353 15.5356C15.2424 15.2427 14.7705 15.2492 14.4309 15.4864C13.742 15.9677 12.9039 16.25 11.9998 16.25C11.0956 16.25 10.2575 15.9677 9.56858 15.4864Z" fill="black"/>
<path fill-rule="evenodd" clip-rule="evenodd" d="M21.8645 13.65C21.9401 13.1947 21.8959 12.7436 21.7602 12.3175C21.5838 11.7642 21.253 11.253 20.8292 10.8292L13.1708 3.17081C12.747 2.74702 12.2358 2.41617 11.6825 2.23984C11.6292 2.22286 11.5756 2.20732 11.5216 2.19327C11.1435 2.09488 10.7484 2.06934 10.35 2.13548C10.289 2.14561 10.2282 2.15629 10.1675 2.16752C5.51984 3.02825 2 7.10307 2 12C2 17.5228 6.47715 22 12 22C16.8969 22 20.9717 18.4802 21.8325 13.8325C21.8437 13.7718 21.8544 13.711 21.8645 13.65ZM3.5 12C3.5 8.08637 6.14622 4.78828 9.74701 3.80142C9.87574 3.76614 10 3.86653 10 4C10 9.52285 14.4772 14 20 14C20.1335 14 20.2339 14.1243 20.1986 14.253C19.2117 17.8538 15.9136 20.5 12 20.5C7.30558 20.5 3.5 16.6944 3.5 12ZM20 12.5C20.1011 12.5 20.1641 12.3936 20.1094 12.3086C20.0185 12.1674 19.9054 12.0267 19.7685 11.8898L12.1101 4.23147C11.9733 4.0946 11.8326 3.98147 11.6914 3.89064C11.6064 3.83594 11.5 3.89892 11.5 4C11.5 8.69442 15.3056 12.5 20 12.5Z" fill="black"/>
</svg>
